X:1
T:Forward (Kettle), 11.11.11 D
T:Forward (Kettle), 11.11.11 D
T:Charles Edward Kettle (1833-1895)
T:Public Domain Courtesy of the Cyber Hymnal™
C:Charles Edward Kettle (1833-1895)
Z:Public Domain
Z:Courtesy of the Cyber Hymnal™
%%score ( 1 2 ) ( 3 4 )
L:1/8
Q:1/4=110
M:4/4
K:G
V:1 treble 
V:2 treble 
V:3 bass 
V:4 bass 
V:1
 D2 [DG]2 [DA]2 [CD]2 | [B,B]4 [Gd]4 | [Fc]2 [GB]2 [Ge]2 [EG]2 | F8 | [B,D]2 [DG]2 [EA]2 [CD]2 | %5
 (B2 d2) (^c2 B2) x4 | [FA]2 [DF]2 [^CG]2 [CE]2 | D8 | D2 [Fc]2 [FB]2 [FA]2 | [FA]4 G4 | %10
 G2 [G=f]2 [Ge]2 [Gd]2 | [Ge]8 | [Ge]2 [^Gd]2 [Ac]2 [Ac]2 | [Ac]4 [GB]4 | [GA]2 [GA]2 [GB]2 [EG]2 | %15
 F4 (D2 C2) | [B,D]2 [DG]2 [DA]2 [CD]2 | [B,B]4 [Gd]4 | [Fc]2 [GB]2 [Ge]2 [GA]2 | A8 | %20
 [DB]2 [GB]2 [Ac]2 [GB]2 | (A2 e2) (c2 A2) | [Gd]2 [GB]2 [EB]2 [FA]2 | G8 |] %24
V:2
 D2 C2 x4 | x8 | x8 | (D2 E2 D2 C2) | x8 | B,8 =F4 | x8 | D8 | D2 x6 | x4 G4 | G2 x6 | x8 | x8 | %13
 x8 | x8 | D2 E2 x4 | x8 | x8 | x8 | (F2 G2 D4) | x8 | E4 E4 | x8 | G8 |] %24
V:3
 [G,B,]2 [D,B,]2 [G,C]2 [D,F,]2 | D4 [B,,D]4 | [A,,D]2 [G,,D]2 [C,C]2 [^C,A,]2 | (A,2 E2 D2 C2) | %4
 [G,B,]2 [D,B,]2 [F,C]2 [D,F,]2 | [G,D]4 [^G,D]4 x4 | [A,D]2 [A,,A,]2 [A,,E,]2 [A,,G,]2 | [D,F,]8 | %8
 [D,F,]2 [D,A,]2 [D,D]2 [D,C]2 | [G,C]4 [G,,B,]4 | [G,B,]2 [G,D]2 [G,C]2 [G,B,]2 | [C,C]8 | %12
 [CE]2 [B,E]2 [A,E]2 [G,_E]2 | [F,D]4 [G,D]4 | [E,^C]2 [A,,C]2 [E,C]2 [A,C]2 | (A,2 C2 B,2 A,2) | %16
 [G,B,]2 [D,B,]2 [F,C]2 [D,F,]2 | D4 [B,,D]4 | [A,,D]2 [G,,D]2 [C,E]2 [^C,E]2 | %19
 ([D,D]2 [E,^C]2 =C4) | [G,B,]2 [D,D]2 [F,D]2 [G,D]2 | [C,C]4 [C,C]4 | %22
 [D,B,]2 [D,D]2 [D,C]2 [D,C]2 | [G,,G,B,]8 |] %24
V:4
 x8 | (G,2 D,2) x4 | x8 | D,8 | x8 | x12 | x8 | x8 | x8 | x8 | x8 | x8 | x8 | x8 | x8 | D,8 | x8 | %17
 G,2 D,2 x4 | x8 | x4 (F,2 D,2) | x8 | x8 | x8 | x8 |] %24

